IMG_7566.svg

<?xml version="1.0" encoding="UTF-8" standalone="no"?>
<svg
   width="917"
   height="1144"
   viewBox="0 0 917 1144"
   version="1.1"
   id="svg10"
   sodipodi:docname="IMG_7566.svg"
   inkscape:version="1.4.2 (ebf0e940, 2025-05-08)"
   inkscape:export-filename="logoRP.png"
   inkscape:export-xdpi="96"
   inkscape:export-ydpi="96"
   xmlns:inkscape="http://www.inkscape.org/namespaces/inkscape"
   xmlns:sodipodi="http://sodipodi.sourceforge.net/DTD/sodipodi-0.dtd"
   xmlns:xlink="http://www.w3.org/1999/xlink"
   xmlns="http://www.w3.org/2000/svg"
   xmlns:svg="http://www.w3.org/2000/svg">
  <defs
     id="defs10">
    <linearGradient
       id="linearGradient69"
       inkscape:swatch="gradient">
      <stop
         style="stop-color:#ffffff;stop-opacity:1;"
         offset="0"
         id="stop69" />
      <stop
         style="stop-color:#ffffff;stop-opacity:0;"
         offset="1"
         id="stop70" />
    </linearGradient>
    <linearGradient
       id="swatch26"
       inkscape:swatch="solid">
      <stop
         style="stop-color:#000000;stop-opacity:1;"
         offset="0"
         id="stop26" />
    </linearGradient>
    <linearGradient
       inkscape:collect="always"
       xlink:href="#swatch26"
       id="linearGradient64"
       gradientUnits="userSpaceOnUse"
       gradientTransform="translate(1.903772e-4,3.2794036e-4)"
       x1="7941.1214"
       y1="-22569.607"
       x2="24816.4"
       y2="-22569.607" />
  </defs>
  <sodipodi:namedview
     id="namedview10"
     pagecolor="#505050"
     bordercolor="#eeeeee"
     borderopacity="1"
     inkscape:showpageshadow="0"
     inkscape:pageopacity="0"
     inkscape:pagecheckerboard="0"
     inkscape:deskcolor="#505050"
     showgrid="false"
     showguides="true"
     inkscape:zoom="0.90509668"
     inkscape:cx="531.98737"
     inkscape:cy="504.91844"
     inkscape:window-width="1920"
     inkscape:window-height="1021"
     inkscape:window-x="1470"
     inkscape:window-y="1471"
     inkscape:window-maximized="0"
     inkscape:current-layer="svg10">
    <sodipodi:guide
       position="47800.418,20660.147"
       orientation="1,0"
       id="guide26"
       inkscape:locked="false" />
  </sodipodi:namedview>
  <circle
     id="path25"
     style="fill:#000000;stroke:none;stroke-width:0.013202"
     cx="328.18921"
     cy="474.42175"
     r="0.019802954" />
  <path
     id="path146"
     style="font-size:325.287px;font-family:'DIN Condensed';-inkscape-font-specification:'DIN Condensed, ';fill:#ffffff;stroke-width:0.997945"
     d="m 403.18164,531.91992 v 61.1543 h 0.004 l -0.33985,128.97851 h -67.4082 v 11.94141 h 70.78711 v -140.91992 -0.01 -56.35351 h 12.03711 c 12.57776,0 22.22662,2.60205 28.94922,7.80664 6.7226,5.20459 10.08398,12.6867 10.08398,22.44531 0,6.24361 -1.37506,11.55418 -4.12695,15.93359 4.19251,-4.97559 6.28906,-11.77575 6.28906,-20.40039 0,-20.38465 -11.7102,-30.57617 -35.13086,-30.57617 z" />
  <path
     d="m 475.07812,639.83789 c -9.98441,3.08723 -21.37112,4.63086 -34.1621,4.63086 h -30.85938 l 56.99805,88.39062 h 79.36914 z"
     style="font-size:325.287px;font-family:'DIN Condensed';-inkscape-font-specification:'DIN Condensed, ';fill:#ccff00;stroke-width:0.997945"
     id="path142" />
  <path
     d="M 343.33203,453.96289 V 699.22852 H 346.375 V 461.03125 h 99.21289 c 13.66205,0 25.58893,2.05939 35.78125,6.17969 10.19233,3.90344 18.54114,9.32421 25.04688,16.26367 6.72259,6.93946 11.71002,14.96423 14.96289,24.07226 3.46972,9.10804 5.20507,18.86621 5.20507,29.2754 0,18.64978 -4.55407,33.83068 -13.66211,45.54101 -8.89117,11.49347 -22.11809,19.29962 -39.68359,23.41992 l 5.74609,7.49219 c 11.51357,-3.56005 21.16188,-9.17255 28.94336,-16.83789 14.74635,-14.31263 22.11914,-34.48095 22.11914,-60.50391 0,-26.02296 -7.37279,-46.18932 -22.11914,-60.50195 -14.52948,-14.31263 -35.5645,-21.46875 -63.10546,-21.46875 z"
     style="font-size:325.287px;font-family:'DIN Condensed';-inkscape-font-specification:'DIN Condensed, ';fill:#ffffff;fill-opacity:1;stroke:#ccff00;stroke-width:16.979"
     id="path141" />
</svg>

<?xml version="1.0" encoding="UTF-8" standalone="no"?>
<svg
   width="917"
   height="1144"
   viewBox="0 0 917 1144"
   version="1.1"
   id="svg10"
   sodipodi:docname="IMG_7566.svg"
   inkscape:version="1.4.2 (ebf0e940, 2025-05-08)"
   inkscape:export-filename="IMG_7566.png"
   inkscape:export-xdpi="96"
   inkscape:export-ydpi="96"
   xmlns:inkscape="http://www.inkscape.org/namespaces/inkscape"
   xmlns:sodipodi="http://sodipodi.sourceforge.net/DTD/sodipodi-0.dtd"
   xmlns:xlink="http://www.w3.org/1999/xlink"
   xmlns="http://www.w3.org/2000/svg"
   xmlns:svg="http://www.w3.org/2000/svg">
  <defs
     id="defs10">
    <linearGradient
       id="linearGradient69"
       inkscape:swatch="gradient">
      <stop
         style="stop-color:#ffffff;stop-opacity:1;"
         offset="0"
         id="stop69" />
      <stop
         style="stop-color:#ffffff;stop-opacity:0;"
         offset="1"
         id="stop70" />
    </linearGradient>
    <linearGradient
       id="swatch26"
       inkscape:swatch="solid">
      <stop
         style="stop-color:#000000;stop-opacity:1;"
         offset="0"
         id="stop26" />
    </linearGradient>
    <linearGradient
       inkscape:collect="always"
       xlink:href="#swatch26"
       id="linearGradient64"
       gradientUnits="userSpaceOnUse"
       gradientTransform="translate(1.903772e-4,3.2794036e-4)"
       x1="7941.1214"
       y1="-22569.607"
       x2="24816.4"
       y2="-22569.607" />
  </defs>
  <sodipodi:namedview
     id="namedview10"
     pagecolor="#505050"
     bordercolor="#eeeeee"
     borderopacity="1"
     inkscape:showpageshadow="0"
     inkscape:pageopacity="0"
     inkscape:pagecheckerboard="0"
     inkscape:deskcolor="#505050"
     showgrid="false"
     showguides="true"
     inkscape:zoom="0.90509668"
     inkscape:cx="531.98737"
     inkscape:cy="504.91844"
     inkscape:window-width="1920"
     inkscape:window-height="1021"
     inkscape:window-x="1470"
     inkscape:window-y="1471"
     inkscape:window-maximized="0"
     inkscape:current-layer="svg10">
    <sodipodi:guide
       position="47800.418,20660.147"
       orientation="1,0"
       id="guide26"
       inkscape:locked="false" />
  </sodipodi:namedview>
  <g
     id="g148">
    <circle
       id="path25"
       style="fill:#000000;stroke:none;stroke-width:0.013202"
       cx="328.18921"
       cy="474.42175"
       r="0.019802954" />
    <path
       id="path146"
       style="font-size:325.287px;font-family:'DIN Condensed';-inkscape-font-specification:'DIN Condensed, ';stroke-width:0.997945;fill:#ccff00"
       d="M 403.18164 531.91992 L 403.18164 593.07422 L 403.18555 593.07422 L 402.8457 722.05273 L 335.4375 722.05273 L 335.4375 733.99414 L 406.22461 733.99414 L 406.22461 593.07422 L 406.22461 593.06445 L 406.22461 536.71094 L 418.26172 536.71094 C 430.83948 536.71094 440.48834 539.31299 447.21094 544.51758 C 453.93354 549.72217 457.29492 557.20428 457.29492 566.96289 C 457.29492 573.2065 455.91986 578.51707 453.16797 582.89648 C 457.36048 577.92089 459.45703 571.12073 459.45703 562.49609 C 459.45703 542.11144 447.74683 531.91992 424.32617 531.91992 L 403.18164 531.91992 z " />
    <path
       d="m 475.07812,639.83789 c -9.98441,3.08723 -21.37112,4.63086 -34.1621,4.63086 h -30.85938 l 56.99805,88.39062 h 79.36914 z"
       style="font-size:325.287px;font-family:'DIN Condensed';-inkscape-font-specification:'DIN Condensed, ';stroke-width:0.997945;fill:#000000"
       id="path142" />
    <path
       d="M 343.33203,453.96289 V 699.22852 H 346.375 V 461.03125 h 99.21289 c 13.66205,0 25.58893,2.05939 35.78125,6.17969 10.19233,3.90344 18.54114,9.32421 25.04688,16.26367 6.72259,6.93946 11.71002,14.96423 14.96289,24.07226 3.46972,9.10804 5.20507,18.86621 5.20507,29.2754 0,18.64978 -4.55407,33.83068 -13.66211,45.54101 -8.89117,11.49347 -22.11809,19.29962 -39.68359,23.41992 l 5.74609,7.49219 c 11.51357,-3.56005 21.16188,-9.17255 28.94336,-16.83789 14.74635,-14.31263 22.11914,-34.48095 22.11914,-60.50391 0,-26.02296 -7.37279,-46.18932 -22.11914,-60.50195 -14.52948,-14.31263 -35.5645,-21.46875 -63.10546,-21.46875 z"
       style="font-size:325.287px;font-family:'DIN Condensed';-inkscape-font-specification:'DIN Condensed, ';fill:#ccff00;stroke:#000000;stroke-width:16.979;fill-opacity:1"
       id="path141" />
  </g>
</svg>
